X: 143113
Q: "Hornpipe."
M: C
L: 1/8
K: D
ud>ue |\
f>ed>c d>AF>A | f>ed>c d>AF>A |\
f>ed>c d>AF>A |
f>ed>c B>dg>b |\
b>a^g>a =g>ea>g | f2d2d2 ::\
c>d |\
e>dc>d e2a2 | f>ed>e f2a2 |\
g>fg>a b>ag>f |
(3efe (3dcB (3ABA (3GFE |\
(3fag (3fed | (3cba (3gfe | f2d2d2 H:|


